apps/scalable/GNUMail.svg

<svg xmlns="http://www.w3.org/2000/svg" style="isolation:isolate" width="256" height="256"><defs><filter id="a" width="270.648" height="254.338" x="-7.32" y="2.95" filterUnits="userSpaceOnUse"><feGaussianBlur xmlns="http://www.w3.org/2000/svg" in="SourceGraphic" stdDeviation="4.294"/><feOffset xmlns="http://www.w3.org/2000/svg" dy="4" result="pf_100_offsetBlur"/><feFlood xmlns="http://www.w3.org/2000/svg" flood-opacity=".4"/><feComposite xmlns="http://www.w3.org/2000/svg" in2="pf_100_offsetBlur" operator="in" result="pf_100_dropShadow"/><feBlend xmlns="http://www.w3.org/2000/svg" in="SourceGraphic" in2="pf_100_dropShadow"/></filter></defs><path fill="#F76363" d="M165.685 11.947c74.055 0 84.639 10.557 84.639 84.544v59.251c0 73.986-10.584 84.543-84.639 84.543h-75.37c-74.055 0-84.639-10.557-84.639-84.543V96.491c0-73.987 10.584-84.544 84.639-84.544h75.37z" filter="url(#a)"/><defs><filter id="b" width="166.64" height="150.33" x="44.01" y="51.01" filterUnits="userSpaceOnUse"><feGaussianBlur xmlns="http://www.w3.org/2000/svg" stdDeviation=".76"/></filter></defs><path d="M64.462 52.779c-7.287-.091-12.183 1.545-14.696 4.561-2.639 3.141-3.991 8.294-3.991 15.456v126.769h163.1V72.796c0-7.162-1.352-12.315-3.991-15.456-2.513-3.016-7.484-4.561-14.696-4.561H64.462z" opacity=".1" filter="url(#b)"/><path fill="#FAF8F6" d="M64.462 52.779c-7.287-.091-12.183 1.545-14.696 4.561-2.639 3.141-3.991 8.294-3.991 15.456v126.769h163.1V72.796c0-7.162-1.352-12.315-3.991-15.456-2.513-3.016-7.484-4.561-14.696-4.561H64.462z"/><path fill="#1A7FD4" d="M78.395 85.395v8.155h97.86v-8.155h-97.86zm0 24.465v8.155h48.93v-8.155h-48.93z" opacity=".5"/><path fill="none" d="M89.64 12C15.584 12 5 22.557 5 96.544v59.252c0 73.986 10.584 84.544 84.64 84.544h75.37c74.056 0 84.64-10.558 84.64-84.544V96.544C249.65 22.557 239.066 12 165.01 12H89.64z"/><defs><filter id="c" width="257.216" height="148.398" x="-1.28" y="98.22" filterUnits="userSpaceOnUse"><feGaussianBlur xmlns="http://www.w3.org/2000/svg" stdDeviation="2.698"/></filter></defs><g opacity=".2" filter="url(#c)"><linearGradient id="d" x1="1.133" x2="-.133" y1=".7" y2=".7" gradientTransform="matrix(244.65 0 0 135.832 5 104.508)" gradientUnits="userSpaceOnUse"><stop offset="0%" stop-opacity=".091"/><stop offset="50%" stop-opacity=".848"/><stop offset="100%" stop-opacity="0"/></linearGradient><path fill="url(#d)" fill-rule="evenodd" d="M5 104.508v51.287c0 9.249.166 17.506.6 24.875a198 198 0 0 0 .866 10.401c.364 3.254.808 6.3 1.346 9.149.537 2.848 1.167 5.5 1.903 7.97.736 2.469 1.578 4.755 2.538 6.87a39.468 39.468 0 0 0 3.254 5.848 33.258 33.258 0 0 0 4.041 4.906 33.336 33.336 0 0 0 4.912 4.035 39.492 39.492 0 0 0 5.856 3.249c2.118.96 4.406 1.8 6.878 2.535 2.472.735 5.127 1.365 7.978 1.901 2.852.537 5.899.981 9.157 1.344 3.257.364 6.724.648 10.412.864 7.377.434 15.642.598 24.899.598h75.37c9.257 0 17.523-.164 24.899-.598 3.689-.216 7.154-.5 10.411-.864 3.257-.363 6.305-.807 9.157-1.344 2.851-.536 5.508-1.166 7.979-1.901 2.472-.735 4.761-1.575 6.879-2.535a39.543 39.543 0 0 0 5.856-3.249 33.258 33.258 0 0 0 4.909-4.035 33.276 33.276 0 0 0 4.044-4.906 39.458 39.458 0 0 0 3.251-5.848c.961-2.115 1.805-4.401 2.541-6.87.736-2.47 1.366-5.122 1.903-7.97.537-2.849.982-5.895 1.346-9.149.364-3.254.649-6.716.866-10.401.434-7.369.599-15.626.599-24.875v-51.287L127.325 158.79 5 104.508z"/></g><path fill="#FA9381" fill-rule="evenodd" d="M5 101.45v54.345c0 9.249.166 17.506.6 24.875a198 198 0 0 0 .866 10.401c.364 3.254.808 6.3 1.346 9.149.537 2.848 1.167 5.5 1.903 7.97.736 2.469 1.578 4.755 2.538 6.87a39.468 39.468 0 0 0 3.254 5.848 33.258 33.258 0 0 0 4.041 4.906 33.336 33.336 0 0 0 4.912 4.035 39.492 39.492 0 0 0 5.856 3.249c2.118.96 4.406 1.8 6.878 2.535 2.472.735 5.127 1.365 7.978 1.901 2.852.537 5.899.981 9.157 1.344 3.257.364 6.724.648 10.412.864 7.377.434 15.642.598 24.899.598h75.37c9.257 0 17.523-.164 24.899-.598 3.689-.216 7.154-.5 10.411-.864 3.257-.363 6.305-.807 9.157-1.344 2.851-.536 5.508-1.166 7.979-1.901 2.472-.735 4.761-1.575 6.879-2.535a39.543 39.543 0 0 0 5.856-3.249 33.258 33.258 0 0 0 4.909-4.035 33.276 33.276 0 0 0 4.044-4.906 39.458 39.458 0 0 0 3.251-5.848c.961-2.115 1.805-4.401 2.541-6.87.736-2.47 1.366-5.122 1.903-7.97.537-2.849.982-5.895 1.346-9.149.364-3.254.649-6.716.866-10.401.434-7.369.599-15.626.599-24.875V101.45l-122.325 57.34L5 101.45z"/><path fill="#FFF" fill-rule="evenodd" d="M11.483 212.976c.27.673.479 1.442.77 2.084a39.468 39.468 0 0 0 3.254 5.848 33.258 33.258 0 0 0 4.041 4.906 33.336 33.336 0 0 0 4.912 4.035 39.492 39.492 0 0 0 5.856 3.249c2.118.96 4.406 1.8 6.878 2.535 2.472.735 5.127 1.365 7.978 1.901 2.852.537 5.899.981 9.157 1.344 3.257.364 6.724.648 10.412.864 7.377.434 15.642.598 24.899.598h75.37c9.257 0 17.523-.164 24.899-.598 3.689-.216 7.154-.5 10.411-.864 3.257-.363 6.305-.807 9.157-1.344 2.851-.536 5.508-1.166 7.979-1.901 2.472-.735 4.761-1.575 6.879-2.535a39.543 39.543 0 0 0 5.856-3.249 33.258 33.258 0 0 0 4.909-4.035 33.276 33.276 0 0 0 4.044-4.906 39.458 39.458 0 0 0 3.251-5.848c.961-2.115 1.805-4.401 2.541-6.87.736-2.47 1.366-5.122 1.903-7.97.537-2.849.982-5.895 1.346-9.149.364-3.254.649-6.716.866-10.401.434-7.369.599-15.626.599-24.875V101.8L11.483 212.976z" opacity=".2"/><path fill="#BC1938" d="M5.383 171.701c.091 2.893.06 6.312.217 8.969a198 198 0 0 0 .866 10.401c.364 3.254.808 6.3 1.346 9.149.379 2.012.867 3.809 1.344 5.63l3.999 1.758v-32.492l-7.772-3.415z"/><path fill="#ED3146" d="M5 122.73l8.155 3.583v32.493L5 155.222V122.73z"/><path fill="#BC1938" d="M245.495 205.85c.477-1.821.965-3.618 1.344-5.63.537-2.849.982-5.895 1.346-9.149.364-3.254.649-6.716.866-10.401.157-2.657.126-6.076.217-8.969l-7.773 3.415v32.492l4-1.758z"/><path fill="#ED3146" d="M249.65 122.73v32.492l-8.155 3.584v-32.493l8.155-3.583z"/><path fill="#FFF" d="M64.462 52.775c-7.287-.091-12.184 1.629-14.697 4.645-2.639 3.141-3.99 8.294-3.99 15.456v2.039c0-7.162 1.351-12.315 3.99-15.456 2.513-3.016 7.41-4.736 14.697-4.645h125.726c7.287 0 12.184 1.629 14.697 4.645 2.639 3.141 3.99 8.294 3.99 15.456v-2.039c0-7.162-1.351-12.315-3.99-15.456-2.513-3.016-7.41-4.645-14.697-4.645H64.462z"/><g opacity=".4"><linearGradient id="e" x1=".517" x2=".517" y2="1"><stop offset="0%" stop-color="#fff"/><stop offset="12.5%" stop-opacity=".098" stop-color="#fff"/><stop offset="92.5%" stop-opacity=".098"/><stop offset="100%" stop-opacity=".498"/></linearGradient><path fill="none" stroke="url(#e)" stroke-linecap="round" stroke-linejoin="round" stroke-width="4.077" d="M165.685 11.947c74.055 0 84.639 10.557 84.639 84.544v59.251c0 73.986-10.584 84.543-84.639 84.543h-75.37c-74.055 0-84.639-10.557-84.639-84.543V96.491c0-73.987 10.584-84.544 84.639-84.544h75.37z" vector-effect="non-scaling-stroke"/></g></svg>

<svg xmlns="http://www.w3.org/2000/svg" style="isolation:isolate" width="256" height="256" viewBox="0 0 256 256">
 <defs>
  <filter id="vJRORt3I4iVXBQvYwxlp30UqovQcDBtN" width="270.648" height="254.338" x="-7.32" y="2.95" filterUnits="userSpaceOnUse">
   <feGaussianBlur xmlns="http://www.w3.org/2000/svg" in="SourceGraphic" stdDeviation="4.294"/>
   <feOffset xmlns="http://www.w3.org/2000/svg" dx="0" dy="4" result="pf_100_offsetBlur"/>
   <feFlood xmlns="http://www.w3.org/2000/svg" flood-opacity=".4"/>
   <feComposite xmlns="http://www.w3.org/2000/svg" in2="pf_100_offsetBlur" operator="in" result="pf_100_dropShadow"/>
   <feBlend xmlns="http://www.w3.org/2000/svg" in="SourceGraphic" in2="pf_100_dropShadow" mode="normal"/>
  </filter>
 </defs>
 <g filter="url(#vJRORt3I4iVXBQvYwxlp30UqovQcDBtN)">
  <path fill="#F76363" d="M 165.685 11.947 C 239.74 11.947 250.324 22.504 250.324 96.491 L 250.324 155.742 C 250.324 229.728 239.74 240.285 165.685 240.285 L 90.315 240.285 C 16.26 240.285 5.676 229.728 5.676 155.742 L 5.676 96.491 C 5.676 22.504 16.26 11.947 90.315 11.947 L 165.685 11.947 Z"/>
 </g>
 <g>
  <defs>
   <filter id="bVsJObM7EhIuFz6MhLXzmXsqDe5fr0EQ" width="166.64" height="150.33" x="44.01" y="51.01" filterUnits="userSpaceOnUse">
    <feGaussianBlur xmlns="http://www.w3.org/2000/svg" stdDeviation=".76"/>
   </filter>
  </defs>
  <g opacity=".1" filter="url(#bVsJObM7EhIuFz6MhLXzmXsqDe5fr0EQ)">
   <path d="M 64.462 52.779 C 57.175 52.688 52.279 54.324 49.766 57.34 C 47.127 60.481 45.775 65.634 45.775 72.796 L 45.775 199.565 L 208.875 199.565 L 208.875 72.796 C 208.875 65.634 207.523 60.481 204.884 57.34 C 202.371 54.324 197.4 52.779 190.188 52.779 L 178.025 52.779 L 93.475 52.779 L 64.462 52.779 Z"/>
  </g>
  <path fill="#FAF8F6" d="M 64.462 52.779 C 57.175 52.688 52.279 54.324 49.766 57.34 C 47.127 60.481 45.775 65.634 45.775 72.796 L 45.775 199.565 L 208.875 199.565 L 208.875 72.796 C 208.875 65.634 207.523 60.481 204.884 57.34 C 202.371 54.324 197.4 52.779 190.188 52.779 L 178.025 52.779 L 93.475 52.779 L 64.462 52.779 Z"/>
  <g opacity=".5">
   <path fill="#1A7FD4" d="M 78.395 85.395 L 78.395 93.55 L 176.255 93.55 L 176.255 85.395 L 78.395 85.395 Z M 78.395 109.86 L 78.395 118.015 L 127.325 118.015 L 127.325 109.86 L 78.395 109.86 Z"/>
  </g>
  <path fill="none" d="M 89.64 12 C 15.584 12 5 22.557 5 96.544 L 5 155.796 C 5 229.782 15.584 240.34 89.64 240.34 L 165.01 240.34 C 239.066 240.34 249.65 229.782 249.65 155.796 L 249.65 96.544 C 249.65 22.557 239.066 12 165.01 12 L 89.64 12 Z"/>
  <defs>
   <filter id="oVYqAkM7VcpAanLZUWTWraJ4NhzVQXP7" width="257.216" height="148.398" x="-1.28" y="98.22" filterUnits="userSpaceOnUse">
    <feGaussianBlur xmlns="http://www.w3.org/2000/svg" stdDeviation="2.698"/>
   </filter>
  </defs>
  <g opacity=".2" filter="url(#oVYqAkM7VcpAanLZUWTWraJ4NhzVQXP7)">
   <linearGradient id="_lgradient_23" x1="1.133" x2="-.133" y1=".7" y2=".7" gradientTransform="matrix(244.65,0,0,135.832,5,104.508)" gradientUnits="userSpaceOnUse">
    <stop offset="0%" stop-opacity=".091" style="stop-color:rgb(0,0,0)"/>
    <stop offset="50%" stop-opacity=".848" style="stop-color:rgb(0,0,0)"/>
    <stop offset="100%" stop-opacity="0" style="stop-color:rgb(0,0,0)"/>
   </linearGradient>
   <path fill="url(#_lgradient_23)" fill-rule="evenodd" d="M 5 104.508 L 5 155.795 C 5 165.044 5.166 173.301 5.6 180.67 C 5.817 184.355 6.101 187.817 6.466 191.071 C 6.83 194.325 7.274 197.371 7.812 200.22 C 8.349 203.068 8.979 205.72 9.715 208.19 C 10.451 210.659 11.293 212.945 12.253 215.06 C 13.214 217.176 14.295 219.12 15.507 220.908 C 16.718 222.696 18.06 224.328 19.548 225.814 C 21.036 227.3 22.67 228.639 24.46 229.849 C 26.25 231.059 28.197 232.139 30.316 233.098 C 32.434 234.058 34.722 234.898 37.194 235.633 C 39.666 236.368 42.321 236.998 45.172 237.534 C 48.024 238.071 51.071 238.515 54.329 238.878 C 57.586 239.242 61.053 239.526 64.741 239.742 C 72.118 240.176 80.383 240.34 89.64 240.34 L 165.01 240.34 C 174.267 240.34 182.533 240.176 189.909 239.742 C 193.598 239.526 197.063 239.242 200.32 238.878 C 203.577 238.515 206.625 238.071 209.477 237.534 C 212.328 236.998 214.985 236.368 217.456 235.633 C 219.928 234.898 222.217 234.058 224.335 233.098 C 226.453 232.139 228.401 231.059 230.191 229.849 C 231.981 228.639 233.613 227.3 235.1 225.814 C 236.588 224.328 237.933 222.696 239.144 220.908 C 240.356 219.12 241.434 217.176 242.395 215.06 C 243.356 212.945 244.2 210.659 244.936 208.19 C 245.672 205.72 246.302 203.068 246.839 200.22 C 247.376 197.371 247.821 194.325 248.185 191.071 C 248.549 187.817 248.834 184.355 249.051 180.67 C 249.485 173.301 249.65 165.044 249.65 155.795 L 249.65 104.508 L 127.325 158.79 L 5 104.508 Z"/>
  </g>
  <path fill="#FA9381" fill-rule="evenodd" d="M 5 101.45 L 5 155.795 C 5 165.044 5.166 173.301 5.6 180.67 C 5.817 184.355 6.101 187.817 6.466 191.071 C 6.83 194.325 7.274 197.371 7.812 200.22 C 8.349 203.068 8.979 205.72 9.715 208.19 C 10.451 210.659 11.293 212.945 12.253 215.06 C 13.214 217.176 14.295 219.12 15.507 220.908 C 16.718 222.696 18.06 224.328 19.548 225.814 C 21.036 227.3 22.67 228.639 24.46 229.849 C 26.25 231.059 28.197 232.139 30.316 233.098 C 32.434 234.058 34.722 234.898 37.194 235.633 C 39.666 236.368 42.321 236.998 45.172 237.534 C 48.024 238.071 51.071 238.515 54.329 238.878 C 57.586 239.242 61.053 239.526 64.741 239.742 C 72.118 240.176 80.383 240.34 89.64 240.34 L 165.01 240.34 C 174.267 240.34 182.533 240.176 189.909 239.742 C 193.598 239.526 197.063 239.242 200.32 238.878 C 203.577 238.515 206.625 238.071 209.477 237.534 C 212.328 236.998 214.985 236.368 217.456 235.633 C 219.928 234.898 222.217 234.058 224.335 233.098 C 226.453 232.139 228.401 231.059 230.191 229.849 C 231.981 228.639 233.613 227.3 235.1 225.814 C 236.588 224.328 237.933 222.696 239.144 220.908 C 240.356 219.12 241.434 217.176 242.395 215.06 C 243.356 212.945 244.2 210.659 244.936 208.19 C 245.672 205.72 246.302 203.068 246.839 200.22 C 247.376 197.371 247.821 194.325 248.185 191.071 C 248.549 187.817 248.834 184.355 249.051 180.67 C 249.485 173.301 249.65 165.044 249.65 155.795 L 249.65 101.45 L 127.325 158.79 L 5 101.45 Z"/>
  <g opacity=".2">
   <path fill="#FFFFFF" fill-rule="evenodd" d="M 11.483 212.976 C 11.753 213.649 11.962 214.418 12.253 215.06 C 13.214 217.176 14.295 219.12 15.507 220.908 C 16.718 222.696 18.06 224.328 19.548 225.814 C 21.036 227.3 22.67 228.639 24.46 229.849 C 26.25 231.059 28.197 232.139 30.316 233.098 C 32.434 234.058 34.722 234.898 37.194 235.633 C 39.666 236.368 42.321 236.998 45.172 237.534 C 48.024 238.071 51.071 238.515 54.329 238.878 C 57.586 239.242 61.053 239.526 64.741 239.742 C 72.118 240.176 80.383 240.34 89.64 240.34 L 165.01 240.34 C 174.267 240.34 182.533 240.176 189.909 239.742 C 193.598 239.526 197.063 239.242 200.32 238.878 C 203.577 238.515 206.625 238.071 209.477 237.534 C 212.328 236.998 214.985 236.368 217.456 235.633 C 219.928 234.898 222.217 234.058 224.335 233.098 C 226.453 232.139 228.401 231.059 230.191 229.849 C 231.981 228.639 233.613 227.3 235.1 225.814 C 236.588 224.328 237.933 222.696 239.144 220.908 C 240.356 219.12 241.434 217.176 242.395 215.06 C 243.356 212.945 244.2 210.659 244.936 208.19 C 245.672 205.72 246.302 203.068 246.839 200.22 C 247.376 197.371 247.821 194.325 248.185 191.071 C 248.549 187.817 248.834 184.355 249.051 180.67 C 249.485 173.301 249.65 165.044 249.65 155.795 L 249.65 101.8 L 11.483 212.976 Z"/>
  </g>
  <path fill="#BC1938" d="M 5.383 171.701 C 5.474 174.594 5.443 178.013 5.6 180.67 C 5.817 184.355 6.101 187.817 6.466 191.071 C 6.83 194.325 7.274 197.371 7.812 200.22 C 8.191 202.232 8.679 204.029 9.156 205.85 L 13.155 207.608 L 13.155 175.116 L 5.383 171.701 Z"/>
  <path fill="#ED3146" d="M 5 122.73 L 13.155 126.313 L 13.155 158.806 L 5 155.222 L 5 122.73 Z"/>
  <path fill="#BC1938" d="M 245.495 205.85 C 245.972 204.029 246.46 202.232 246.839 200.22 C 247.376 197.371 247.821 194.325 248.185 191.071 C 248.549 187.817 248.834 184.355 249.051 180.67 C 249.208 178.013 249.177 174.594 249.268 171.701 L 241.495 175.116 L 241.495 207.608 L 245.495 205.85 Z"/>
  <path fill="#ED3146" d="M 249.65 122.73 L 249.65 155.222 L 241.495 158.806 L 241.495 126.313 L 249.65 122.73 Z"/>
  <path fill="#FFFFFF" d="M 64.462 52.775 C 57.175 52.684 52.278 54.404 49.765 57.42 C 47.126 60.561 45.775 65.714 45.775 72.876 L 45.775 74.915 C 45.775 67.753 47.126 62.6 49.765 59.459 C 52.278 56.443 57.175 54.723 64.462 54.814 L 97.552 54.814 L 178.025 54.814 L 190.188 54.814 C 197.475 54.814 202.372 56.443 204.885 59.459 C 207.524 62.6 208.875 67.753 208.875 74.915 L 208.875 72.876 C 208.875 65.714 207.524 60.561 204.885 57.42 C 202.372 54.404 197.475 52.775 190.188 52.775 L 178.025 52.775 L 97.552 52.775 L 64.462 52.775 Z"/>
 </g>
 <g opacity=".4">
  <linearGradient id="_lgradient_24" x1=".517" x2=".517" y1="0" y2="1">
   <stop offset="0%" style="stop-color:rgb(255,255,255)"/>
   <stop offset="12.5%" stop-opacity=".098" style="stop-color:rgb(255,255,255)"/>
   <stop offset="92.5%" stop-opacity=".098" style="stop-color:rgb(0,0,0)"/>
   <stop offset="100%" stop-opacity=".498" style="stop-color:rgb(0,0,0)"/>
  </linearGradient>
  <path fill="none" stroke="url(#_lgradient_24)" stroke-linecap="round" stroke-linejoin="round" stroke-width="4.077" d="M 165.685 11.947 C 239.74 11.947 250.324 22.504 250.324 96.491 L 250.324 155.742 C 250.324 229.728 239.74 240.285 165.685 240.285 L 90.315 240.285 C 16.26 240.285 5.676 229.728 5.676 155.742 L 5.676 96.491 C 5.676 22.504 16.26 11.947 90.315 11.947 L 165.685 11.947 Z" vector-effect="non-scaling-stroke"/>
 </g>
</svg>
